svg/identifier.svg

<svg xmlns="http://www.w3.org/2000/svg" viewBox="0 0 24 24"><path d="M10 7v2H9v6h1v2H6v-2h1V9H6V7zm6 0a2 2 0 0 1 2 2v6c0 1.11-.89 2-2 2h-4V7m4 2h-2v6h2z"/></svg>

<?xml version="1.0" encoding="UTF-8"?><!DOCTYPE svg PUBLIC "-//W3C//DTD SVG 1.1//EN" "http://www.w3.org/Graphics/SVG/1.1/DTD/svg11.dtd"><svg xmlns="http://www.w3.org/2000/svg" xmlns:xlink="http://www.w3.org/1999/xlink" version="1.1" id="mdi-identifier" width="24" height="24" viewBox="0 0 24 24"><path d="M10 7V9H9V15H10V17H6V15H7V9H6V7H10M16 7C17.11 7 18 7.9 18 9V15C18 16.11 17.11 17 16 17H12V7M16 9H14V15H16V9Z" /></svg>
